X:680
T: Trotting to Larne
C: J.T.Blair
S: John Skelton
L: 1/8
M: 9/8
R: slip jig
K: D
A2f A2f fed | A2f A2f fed |
B2d G2B dcB | A3 Ade fdB |
A2f A2f fed | B2g B2g ged |
c2e A2a bag |1 f3 edc dcB :|2\
f3 edc d2 ||
c| B3 AGF A3 | AGF AGF Adc |
B3 AGF A2F | G2E EFD CB,A, |
Adf d2A ded | Bdg d2B ded |
cea g2e bag | f3 edc d3 :|
